X: 1
T: Big John McNeil
C: Peter Milne (1824-1908)
N: Peter Milne was a friend and teacher of J.S.Skinner.
B: Hunter 237, BSFC IX-2, John McNeil's Reel in SFT p.13, NEFR p.133
M: C|
L: 1/8
K: A
|: E2 \
| "A"A,2CE FECE | AECE FECE |\
A,2CE FECE | "D"FAGF "E7"EDCB, |\
"A"A,2CE FECE | AECE FECE |
| "D"B,DCE DFEG | "E7"FAGB "A"cA A2 :: cd |\
"A"eAfA eAca | eAfA e2 (3fga |\
eAfA eAce | "D"daca "E7"B2cd |
| "A"eAfA eAca | eAfA e2fg |\
agfe "D"fedc |[1 "E7"defg "A"a2 :|\
[2 "E7"BAGF EDCB, :| "A"HA,4 |]
